X:160
T: John Naughton's Favorite
S: "Treoir"
Z: B.Black
M: 4/4
L: 1/8
R: reel
K: Ador
ABAG EGDE | G2 BG dGBG | ABAG E>G D2 | Beed BA A2 |
ABAG EGDE | G2 BG dGBG | ABAG E>G D2 | gedB BA A2 :|
ageg a2 ba | gede g2 bg | ageg a2 ga | bgga bg g2 |
bg g2 afef | gedB BABd | egfa g3 d | gedB BA A2 :|
